tests/fixtures/lightroom-sample.xmp
<?xpacket begin="" id="W5M0MpCehiHzreSzNTczkc9d"?>
<x:xmpmeta xmlns:x="adobe:ns:meta/" x:xmptk="Adobe XMP Core 7.0-c000 1.000000, 0000/00/00-00:00:00">
 <rdf:RDF xmlns:rdf="http://www.w3.org/1999/02/22-rdf-syntax-ns#">
  <rdf:Description rdf:about=""
    xmlns:crs="http://ns.adobe.com/camera-raw-settings/1.0/"
    crs:Version="15.0"
    crs:ProcessVersion="11.0"
    crs:WhiteBalance="Custom"
    crs:Temperature="6500"
    crs:Tint="+10"
    crs:Exposure2012="+0.85"
    crs:Contrast2012="+12"
    crs:Highlights2012="-40"
    crs:Shadows2012="+35"
    crs:Whites2012="0"
    crs:Blacks2012="0"
    crs:Vibrance="+25"
    crs:Saturation="0"
    crs:Sharpness="40"
    crs:SaturationAdjustmentBlue="-15"
    crs:StraightenAngle="0"
    crs:CropLeft="0.05"
    crs:CropTop="0.1"
    crs:CropRight="0.95"
    crs:CropBottom="0.9"
    crs:HasCrop="True"
    crs:ToneCurveName2012="Custom">
   <crs:ToneCurvePV2012>
    <rdf:Seq>
     <rdf:li>0, 0</rdf:li>
     <rdf:li>64, 48</rdf:li>
     <rdf:li>255, 255</rdf:li>
    </rdf:Seq>
   </crs:ToneCurvePV2012>
  </rdf:Description>
 </rdf:RDF>
</x:xmpmeta>
<?xpacket end="w"?>
